X:1
T:Father, Let Me Dedicate, 75.75 D
T:Father, Let Me Dedicate, 75.75 D
T:George Alexander Macfarren, 1872
T:Public Domain Courtesy of the Cyber Hymnal™
C:George Alexander Macfarren, 1872
Z:Public Domain
Z:Courtesy of the Cyber Hymnal™
%%score ( 1 2 ) ( 3 4 )
L:1/8
Q:1/4=112
M:4/4
K:D
V:1 treble 
V:2 treble 
V:3 bass 
V:4 bass 
V:1
 [FA]2 [DF]2 [DG]2 [FA]2 | [FB]3 [EB] [EB]4 | [Gc]2 [FB]2 A3 z G | [DF]8 | %4
 [DG]2 [GB]2 [Ae]2 [Ad]2 | c3 z [EA]4 | [FB]3 [DF] [DF]2 [D^G]2 | [CA]8 | [DG]3 [DG] [CF]2 [CF]2 | %9
 B3 z A4 x | d3 z [CG]2 [DF]2 | [DF]4 [CE]4 x2 | D3 [CE] [DF]2 [DG]2 | [FA]2 [DB]2 [Fc]4 | %14
 [Fd]3 [GB] [GB]2 [Ge]2 | [Fd]8 |] %16
V:2
 x8 | x8 | x4 E2 C2 x | x8 | x8 | A2 (E2 B) x3 | x8 | x8 | x8 | B,2 (C2 B) (D2 E2) | D2 (D2 A) x3 | %11
 x10 | x8 | x8 | x8 | x8 |] %16
V:3
 D2 z C, [B,,D]2 [A,,C]2 | B,3 z [G,B,]2 [F,A,]2 | [E,G,]2 [D,B,]2 [C,E]2 [A,,A,]2 x | [D,A,]8 | %4
 [B,,G,]2 [G,,D]2 [G,C]2 [F,D]2 | [E,C]2 [D,^G,]2 (A,2 B,C) | [B,,D]3 [E,B,] [E,B,]2 [E,B,]2 | %7
 [A,,A,]8 | [A,,B,]3 [A,,B,] [A,,A,]2 [A,,A,]2 | G,3 z G, ([A,,F,]2 [G,,E,]2) | %10
 [F,,A,]2 [F,A,]2 [E,A,]2 [D,A,]2 | A,4 z2 x4 | [F,A,]3 [E,G,] [D,F,]2 [B,D]2 | %13
 [A,D]2 [G,B,]2 [F,^A,]4 | [B,,B,]3 [E,B,] [E,B,]2 [A,,C]2 | [D,D]8 |] %16
V:4
 D,3 A,2 x3 | G,,2 (G,2 B,) x3 | x9 | x8 | x8 | x4 C,4 | x8 | x8 | x8 | A,,2 A,,2 x5 | x8 | %11
 x4 A,4 G,2 | x8 | x8 | x8 | x8 |] %16

